shader brushAlpha(
    float s = 0 [[int lockgeom = 0]],
    float t = 0 [[int lockgeom = 0]],
    /* uvRepeat in conjunction with the ss and tt will act the same as a repeat UV in a maya place2dTexture */
    float uvRepeat = 1,
    output color resultRGB = color(0)
)

{
    /* The ss and tt allows you to tile the UV coordinates with the s and t staying between 0 and 1 */
    float ss = mod (s * uvRepeat, 1);
    float tt = mod (t * uvRepeat, 1);
    resultRGB = color(ss, tt, 1);
}